X: 40634
T: Toormore, The
R: slide
M: 12/8
K: Aminor
|:E2 A AGA c2 d e3|d3 d^cd B2 d g3|
E2 A AGA c2 d e2 e|1 d2 c A2 G A3 A3:|2 d2 c A2 G A3 c2 d||
|:efe ded cdc BcB|ABA cBA G2 E E2 D|
E2 A AGA c2 d e2 e|1 d2 c A2 G A3 c2 d:|2 d2 c A2 G A3 A3||
"variation of 2nd part"
|:e2e ded c2c BcB|ABA cBA G2 E E2 D|
E2 A AGA c2 d e2 e|1 d2 c A2 G A3 c2 d:|2 d2 c A2 G A3 A3||

